device_themes/vtm_theme_poi/icons/fuel.svg

<svg height="580" width="580" xmlns="http://www.w3.org/2000/svg"><path d="m479 50.900391-221 .099609c-11-.3-22 8-22 21v23c-15-2-30 2-44 42 0 23 1 46 1 69-24 97-71 153-105 235-16 83 93 121 127 37 4-92 0-188 1-282h20v299h23v34h215v-33h20v-428.099609c0-9.1-5-17-15-17zm-184 47.099609h140c7 0 13 3 13 14v111c0 7-4 13-12 13l-141-1c-8 0-15-6-15-15v-109c0-8 6-13 15-13zm-99 181c2 64 3 129-3 191-21 60-88 41-85-16 29-60 66-133 88-175z" fill="none" opacity=".8" stroke="#fff" stroke-linejoin="round" stroke-width="64"/><path d="m479 50.900391-221 .099609c-11-.3-22 8-22 21v23c-15-2-30 2-44 42 0 23 1 46 1 69-24 97-71 153-105 235-16 83 93 121 127 37 4-92 0-188 1-282h20v299h23v34h215v-33h20v-428.099609c0-9.1-5-17-15-17zm-184 47.099609h140c7 0 13 3 13 14v111c0 7-4 13-12 13l-141-1c-8 0-15-6-15-15v-109c0-8 6-13 15-13zm-99 181c2 64 3 129-3 191-21 60-88 41-85-16 29-60 66-133 88-175z"/></svg>

<?xml version="1.0" encoding="UTF-8" standalone="no"?>
<svg xmlns="http://www.w3.org/2000/svg" version="1.0" width="580" height="580">
 <metadata id="metadata10"/>
 <path id="path4141" d="M 479 50.900391 L 258 51 C 247 50.7 236 59 236 72 L 236 95 C 221 93 206 97 192 137 C 192 160 193 183 193 206 C 169 303 122 359 88 441 C 72 524 181 562 215 478 C 219 386 215 290 216 196 L 236 196 L 236 495 L 259 495 L 259 529 L 474 529 L 474 496 L 494 496 L 494 67.900391 C 494 58.800391 489 50.900391 479 50.900391 z M 295 98 L 435 98 C 442 98 448 101 448 112 L 448 223 C 448 230 444 236 436 236 L 295 235 C 287 235 280 229 280 220 L 280 111 C 280 103 286 98 295 98 z M 196 279 C 198 343 199 408 193 470 C 172 530 105 511 108 454 C 137 394 174 321 196 279 z " mix-blend-mode="normal" solid-color="#000000" opacity="0.8" color-interpolation-filters="linearRGB" filter-gaussianBlur-deviation="0" color="#000000" image-rendering="auto" color-rendering="auto" stroke-width="64" isolation="auto" color-interpolation="sRGB" solid-opacity="1" fill="none" stroke-linejoin="round" filter-blend-mode="normal" stroke="#ffffff" shape-rendering="auto"/>
 <path d="M 479 50.900391 L 258 51 C 247 50.7 236 59 236 72 L 236 95 C 221 93 206 97 192 137 C 192 160 193 183 193 206 C 169 303 122 359 88 441 C 72 524 181 562 215 478 C 219 386 215 290 216 196 L 236 196 L 236 495 L 259 495 L 259 529 L 474 529 L 474 496 L 494 496 L 494 67.900391 C 494 58.800391 489 50.900391 479 50.900391 z M 295 98 L 435 98 C 442 98 448 101 448 112 L 448 223 C 448 230 444 236 436 236 L 295 235 C 287 235 280 229 280 220 L 280 111 C 280 103 286 98 295 98 z M 196 279 C 198 343 199 408 193 470 C 172 530 105 511 108 454 C 137 394 174 321 196 279 z " id="path4138" fill="#000"/>
</svg>
